assets/images/paypal.svg

<?xml version="1.0" standalone="no"?>
<!DOCTYPE svg PUBLIC "-//W3C//DTD SVG 1.0//EN" "http://www.w3.org/TR/2001/REC-SVG-20010904/DTD/svg10.dtd">
<svg xmlns="http://www.w3.org/2000/svg" xmlns:xlink="http://www.w3.org/1999/xlink" id="body_1" width="225" height="169">

<g transform="matrix(0.21972656 0 0 0.2200521 0 0)">
	<g transform="matrix(1.5238097 0 0 1.5238097 128 -0)">
	</g>
    <path transform="matrix(1.5238097 0 0 1.5238097 128 -0)"  d="M389.6 221.2L362.4 221.2C 360.8 221.2 359.19998 222.8 358.4 224.4L358.4 224.4L347.19998 294.8C 347.19998 296.4 347.99997 297.19998 349.59998 297.19998L349.59998 297.19998L364 297.19998C 365.6 297.19998 366.4 296.4 366.4 294.8L366.4 294.8L369.6 274.8C 369.6 273.19998 371.2 271.59998 373.6 271.59998L373.6 271.59998L382.4 271.59998C 400.8 271.59998 411.19998 262.8 413.6 245.19998C 415.2 237.99998 413.6 231.59998 410.4 227.59998C 405.6 223.6 398.4 221.2 389.6 221.2M392.8 247.6C 391.19998 257.2 384 257.2 376.8 257.2L376.8 257.2L372 257.2L375.2 238.80002C 375.2 238.00002 376 237.20001 377.6 237.20001L377.6 237.20001L379.2 237.20001C 384 237.20001 388.80002 237.20001 391.2 240.40001C 392.8 241.2 392.8 243.6 392.8 247.6" stroke="none" fill="#139AD6" fill-rule="nonzero" />
	<g transform="matrix(1.5238097 0 0 1.5238097 128 -0)">
	</g>
    <path transform="matrix(1.5238097 0 0 1.5238097 128 -0)"  d="M193.6 221.2L166.40001 221.2C 164.8 221.2 163.20001 222.8 162.40001 224.4L162.40001 224.4L151.20001 294.8C 151.20001 296.4 152.00002 297.19998 153.6 297.19998L153.6 297.19998L166.40001 297.19998C 168.00002 297.19998 169.6 295.59998 170.40001 293.99997L170.40001 293.99997L173.6 274.79996C 173.6 273.19995 175.20001 271.59995 177.6 271.59995L177.6 271.59995L186.40001 271.59995C 204.8 271.59995 215.20001 262.79996 217.6 245.19995C 219.20001 237.99995 217.6 231.59995 214.40001 227.59995C 209.6 223.6 203.2 221.2 193.6 221.2M196.8 247.6C 195.2 257.2 188 257.2 180.8 257.2L180.8 257.2L176.8 257.2L180 238.80002C 180 238.00002 180.8 237.20001 182.4 237.20001L182.4 237.20001L184 237.20001C 188.8 237.20001 193.6 237.20001 196 240.40001C 196.8 241.2 197.6 243.6 196.8 247.6" stroke="none" fill="#263B80" fill-rule="nonzero" />
	<g transform="matrix(1.5238097 0 0 1.5238097 128 -0)">
	</g>
    <path transform="matrix(1.5238097 0 0 1.5238097 128 -0)"  d="M276 246.8L263.2 246.8C 262.40002 246.8 260.80002 247.6 260.80002 248.40001L260.80002 248.40001L260.00003 252.40001L259.20004 250.8C 256.00003 246.8 250.40004 245.2 244.00005 245.2C 229.60005 245.2 216.80005 256.4 214.40004 271.6C 212.80003 279.6 215.20004 286.80002 219.20004 291.6C 223.20004 296.4 228.80005 298 236.00005 298C 248.00005 298 254.40004 290.8 254.40004 290.8L254.40004 290.8L253.60004 294.8C 253.60004 296.4 254.40004 297.19998 256.00003 297.19998L256.00003 297.19998L268.00003 297.19998C 269.60004 297.19998 271.20004 295.59998 272.00003 293.99997L272.00003 293.99997L279.20004 249.19997C 278.4 248.4 276.8 246.8 276 246.8M257.6 272.4C 256 279.6 250.40001 285.19998 242.40001 285.19998C 238.40001 285.19998 235.20001 283.59998 233.6 281.99997C 232 279.59998 231.20001 276.39996 231.20001 272.39996C 232.00002 265.19995 238.40001 259.59998 245.6 259.59998C 249.6 259.59998 252 261.19998 254.40001 262.8C 256.8 265.2 257.6 269.2 257.6 272.4" stroke="none" fill="#263B80" fill-rule="nonzero" />
	<g transform="matrix(1.5238097 0 0 1.5238097 128 -0)">
	</g>
    <path transform="matrix(1.5238097 0 0 1.5238097 128 -0)"  d="M471.2 246.8L458.40002 246.8C 457.60004 246.8 456.00003 247.6 456.00003 248.40001L456.00003 248.40001L455.20004 252.40001L454.40005 250.8C 451.20004 246.8 445.60007 245.2 439.20004 245.2C 424.80005 245.2 412.00003 256.4 409.60004 271.6C 408.00003 279.6 410.40002 286.80002 414.40002 291.6C 418.40002 296.4 424.00003 298 431.2 298C 443.2 298 449.6 290.8 449.6 290.8L449.6 290.8L448.80002 294.8C 448.80002 296.4 449.6 297.19998 451.2 297.19998L451.2 297.19998L463.2 297.19998C 464.80002 297.19998 466.40002 295.59998 467.2 293.99997L467.2 293.99997L474.40002 249.19997C 473.6 248.4 472.8 246.8 471.2 246.8M452.8 272.4C 451.19998 279.6 445.59998 285.19998 437.59998 285.19998C 433.59998 285.19998 430.39996 283.59998 428.8 281.99997C 427.19998 279.59998 426.4 276.39996 426.4 272.39996C 427.19998 265.19995 433.6 259.59998 440.8 259.59998C 444.8 259.59998 447.19998 261.19998 449.59998 262.8C 452.8 265.2 453.6 269.2 452.8 272.4" stroke="none" fill="#139AD6" fill-rule="nonzero" />
	<g transform="matrix(1.5238097 0 0 1.5238097 128 -0)">
	</g>
    <path transform="matrix(1.5238097 0 0 1.5238097 128 -0)"  d="M345.6 246.8L332 246.8C 330.4 246.8 329.6 247.6 328.8 248.40001L328.8 248.40001L311.19998 275.6L303.19998 250C 302.4 248.4 301.59998 247.6 299.19998 247.6L299.19998 247.6L286.4 247.6C 284.8 247.6 284 249.20001 284 250.8L284 250.8L298.4 293.2L284.8 312.40002C 284 314.00003 284.8 316.40002 286.4 316.40002L286.4 316.40002L299.19998 316.40002C 300.8 316.40002 301.59998 315.60004 302.4 314.80002L302.4 314.80002L346.4 251.60002C 348.8 249.2 347.2 246.8 345.6 246.8" stroke="none" fill="#263B80" fill-rule="nonzero" />
	<g transform="matrix(1.5238097 0 0 1.5238097 128 -0)">
	</g>
    <path transform="matrix(1.5238097 0 0 1.5238097 128 -0)"  d="M486.4 223.6L475.19998 295.6C 475.19998 297.2 475.99997 298 477.59998 298L477.59998 298L488.8 298C 490.4 298 492 296.4 492.8 294.8L492.8 294.8L504 224.4C 504 222.79999 503.2 222 501.6 222L501.6 222L488.80002 222C 488 221.2 487.2 222 486.4 223.6" stroke="none" fill="#139AD6" fill-rule="nonzero" />
	<g transform="matrix(1.5238097 0 0 1.5238097 128 -0)">
	</g>
    <path transform="matrix(1.5238097 0 0 1.5238097 128 -0)"  d="M92 197.2C 86.4 190.8 76 187.59999 61.6 187.59999L61.6 187.59999L21.599998 187.59999C 19.199999 187.59999 16.8 189.99998 15.999998 192.4L15.999998 192.4L0 297.2C 0 299.6 1.6 301.2 3.2 301.2L3.2 301.2L28 301.2L34.4 262L34.4 263.6C 35.2 261.2 37.600002 258.80002 40 258.80002L40 258.80002L52 258.80002C 75.2 258.80002 92.8 249.20001 98.4 222.80002C 98.4 222.00002 98.4 221.20001 98.4 220.40002C 97.6 220.40002 97.6 220.40002 98.4 220.40002C 99.2 210 97.6 203.6 92 197.2" stroke="none" fill="#263B80" fill-rule="nonzero" />
	<g transform="matrix(1.5238097 0 0 1.5238097 128 -0)">
	</g>
    <path transform="matrix(1.5238097 0 0 1.5238097 128 -0)"  d="M97.6 220.4C 97.6 221.2 97.6 222 97.6 222.79999C 92 249.99998 74.399994 258.8 51.199997 258.8L51.199997 258.8L39.199997 258.8C 36.799995 258.8 34.399998 261.19998 33.6 263.59998L33.6 263.59998L25.599998 312.39996C 25.599998 313.99997 26.399998 315.59998 28.8 315.59998L28.8 315.59998L49.6 315.59998C 52 315.59998 54.399998 313.99997 54.399998 311.59998L54.399998 311.59998L54.399998 310.8L58.399998 286L58.399998 284.4C 58.399998 282 60.8 280.4 63.199997 280.4L63.199997 280.4L66.399994 280.4C 86.399994 280.4 102.399994 272.4 106.399994 248.4C 107.99999 238.79999 107.2 230 102.399994 224.4C 101.6 222.8 100 221.2 97.6 220.4" stroke="none" fill="#139AD6" fill-rule="nonzero" />
	<g transform="matrix(1.5238097 0 0 1.5238097 128 -0)">
	</g>
    <path transform="matrix(1.5238097 0 0 1.5238097 128 -0)"  d="M92 218C 91.2 218 90.4 217.2 89.6 217.2C 88.799995 217.2 88 217.2 87.2 216.4C 84 215.59999 80.799995 215.59999 76.799995 215.59999L76.799995 215.59999L45.6 215.59999C 44.8 215.59999 44 215.59999 43.199997 216.4C 41.6 217.2 40.799995 218.79999 40.799995 220.4L40.799995 220.4L34.4 262L34.4 263.6C 35.2 261.2 37.600002 258.80002 40 258.80002L40 258.80002L52 258.80002C 75.2 258.80002 92.8 249.20001 98.4 222.80002C 98.4 222.00002 98.4 221.20001 99.200005 220.40002C 97.600006 219.60002 96.8 218.80002 95.200005 218.80002C 92.8 218 92.8 218 92 218" stroke="none" fill="#232C65" fill-rule="nonzero" />
</g>
</svg>

<?xml version="1.0" encoding="iso-8859-1"?>
<!-- Generator: Adobe Illustrator 19.0.0, SVG Export Plug-In . SVG Version: 6.00 Build 0)  -->
<svg version="1.1" id="Capa_1" xmlns="http://www.w3.org/2000/svg" xmlns:xlink="http://www.w3.org/1999/xlink" x="0px" y="0px"
	 viewBox="0 0 504 504" style="enable-background:new 0 0 504 504;" xml:space="preserve">
<path style="fill:#139AD6;" d="M389.6,221.2h-27.2c-1.6,0-3.2,1.6-4,3.2l-11.2,70.4c0,1.6,0.8,2.4,2.4,2.4H364
	c1.6,0,2.4-0.8,2.4-2.4l3.2-20c0-1.6,1.6-3.2,4-3.2h8.8c18.4,0,28.8-8.8,31.2-26.4c1.6-7.2,0-13.6-3.2-17.6
	C405.6,223.6,398.4,221.2,389.6,221.2 M392.8,247.6c-1.6,9.6-8.8,9.6-16,9.6H372l3.2-18.4c0-0.8,0.8-1.6,2.4-1.6h1.6
	c4.8,0,9.6,0,12,3.2C392.8,241.2,392.8,243.6,392.8,247.6"/>
<g>
	<path style="fill:#263B80;" d="M193.6,221.2h-27.2c-1.6,0-3.2,1.6-4,3.2l-11.2,70.4c0,1.6,0.8,2.4,2.4,2.4h12.8
		c1.6,0,3.2-1.6,4-3.2l3.2-19.2c0-1.6,1.6-3.2,4-3.2h8.8c18.4,0,28.8-8.8,31.2-26.4c1.6-7.2,0-13.6-3.2-17.6
		C209.6,223.6,203.2,221.2,193.6,221.2 M196.8,247.6c-1.6,9.6-8.8,9.6-16,9.6h-4l3.2-18.4c0-0.8,0.8-1.6,2.4-1.6h1.6
		c4.8,0,9.6,0,12,3.2C196.8,241.2,197.6,243.6,196.8,247.6"/>
	<path style="fill:#263B80;" d="M276,246.8h-12.8c-0.8,0-2.4,0.8-2.4,1.6l-0.8,4l-0.8-1.6c-3.2-4-8.8-5.6-15.2-5.6
		c-14.4,0-27.2,11.2-29.6,26.4c-1.6,8,0.8,15.2,4.8,20s9.6,6.4,16.8,6.4c12,0,18.4-7.2,18.4-7.2l-0.8,4c0,1.6,0.8,2.4,2.4,2.4h12
		c1.6,0,3.2-1.6,4-3.2l7.2-44.8C278.4,248.4,276.8,246.8,276,246.8 M257.6,272.4c-1.6,7.2-7.2,12.8-15.2,12.8c-4,0-7.2-1.6-8.8-3.2
		c-1.6-2.4-2.4-5.6-2.4-9.6c0.8-7.2,7.2-12.8,14.4-12.8c4,0,6.4,1.6,8.8,3.2C256.8,265.2,257.6,269.2,257.6,272.4"/>
</g>
<path style="fill:#139AD6;" d="M471.2,246.8h-12.8c-0.8,0-2.4,0.8-2.4,1.6l-0.8,4l-0.8-1.6c-3.2-4-8.8-5.6-15.2-5.6
	c-14.4,0-27.2,11.2-29.6,26.4c-1.6,8,0.8,15.2,4.8,20s9.6,6.4,16.8,6.4c12,0,18.4-7.2,18.4-7.2l-0.8,4c0,1.6,0.8,2.4,2.4,2.4h12
	c1.6,0,3.2-1.6,4-3.2l7.2-44.8C473.6,248.4,472.8,246.8,471.2,246.8 M452.8,272.4c-1.6,7.2-7.2,12.8-15.2,12.8c-4,0-7.2-1.6-8.8-3.2
	c-1.6-2.4-2.4-5.6-2.4-9.6c0.8-7.2,7.2-12.8,14.4-12.8c4,0,6.4,1.6,8.8,3.2C452.8,265.2,453.6,269.2,452.8,272.4"/>
<path style="fill:#263B80;" d="M345.6,246.8H332c-1.6,0-2.4,0.8-3.2,1.6l-17.6,27.2l-8-25.6c-0.8-1.6-1.6-2.4-4-2.4h-12.8
	c-1.6,0-2.4,1.6-2.4,3.2l14.4,42.4l-13.6,19.2c-0.8,1.6,0,4,1.6,4h12.8c1.6,0,2.4-0.8,3.2-1.6l44-63.2
	C348.8,249.2,347.2,246.8,345.6,246.8"/>
<path style="fill:#139AD6;" d="M486.4,223.6l-11.2,72c0,1.6,0.8,2.4,2.4,2.4h11.2c1.6,0,3.2-1.6,4-3.2l11.2-70.4
	c0-1.6-0.8-2.4-2.4-2.4h-12.8C488,221.2,487.2,222,486.4,223.6"/>
<path style="fill:#263B80;" d="M92,197.2c-5.6-6.4-16-9.6-30.4-9.6h-40c-2.4,0-4.8,2.4-5.6,4.8L0,297.2c0,2.4,1.6,4,3.2,4H28
	l6.4-39.2v1.6c0.8-2.4,3.2-4.8,5.6-4.8h12c23.2,0,40.8-9.6,46.4-36c0-0.8,0-1.6,0-2.4c-0.8,0-0.8,0,0,0
	C99.2,210,97.6,203.6,92,197.2"/>
<path style="fill:#139AD6;" d="M97.6,220.4L97.6,220.4c0,0.8,0,1.6,0,2.4c-5.6,27.2-23.2,36-46.4,36h-12c-2.4,0-4.8,2.4-5.6,4.8
	l-8,48.8c0,1.6,0.8,3.2,3.2,3.2h20.8c2.4,0,4.8-1.6,4.8-4v-0.8l4-24.8v-1.6c0-2.4,2.4-4,4.8-4h3.2c20,0,36-8,40-32
	c1.6-9.6,0.8-18.4-4-24C101.6,222.8,100,221.2,97.6,220.4"/>
<path style="fill:#232C65;" d="M92,218c-0.8,0-1.6-0.8-2.4-0.8s-1.6,0-2.4-0.8c-3.2-0.8-6.4-0.8-10.4-0.8H45.6c-0.8,0-1.6,0-2.4,0.8
	c-1.6,0.8-2.4,2.4-2.4,4L34.4,262v1.6c0.8-2.4,3.2-4.8,5.6-4.8h12c23.2,0,40.8-9.6,46.4-36c0-0.8,0-1.6,0.8-2.4
	c-1.6-0.8-2.4-1.6-4-1.6C92.8,218,92.8,218,92,218"/>
<g>
</g>
<g>
</g>
<g>
</g>
<g>
</g>
<g>
</g>
<g>
</g>
<g>
</g>
<g>
</g>
<g>
</g>
<g>
</g>
<g>
</g>
<g>
</g>
<g>
</g>
<g>
</g>
<g>
</g>
</svg>
